icons/paintbrush-16.svg

<svg width="16" height="16" viewBox="0 0 16 16" fill="none" xmlns="http://www.w3.org/2000/svg">
<g clip-path="url(#clip0)">
<path fill-rule="evenodd" clip-rule="evenodd" d="M4.86504 1.53511C6.27715 2.56157 7.83864 4.05716 9.10994 5.3122C10.1993 6.38768 10.9587 7.40111 11.4246 8.29416C12.5657 8.11791 13.7726 8.46931 14.6517 9.34835C15.0827 9.77939 15.3425 10.4135 15.5127 11.0048C15.6895 11.6191 15.7999 12.2995 15.8702 12.9191C15.9408 13.5424 15.9731 14.1245 15.9878 14.5495C15.9952 14.7626 15.9982 14.9375 15.9994 15.0601C16 15.1214 16.0001 15.1697 16.0001 15.2032L15.9999 15.2422L15.9999 15.2529L15.9998 15.2561L15.9998 15.2574L15.2499 15.25L15.2573 15.9999L15.2559 15.9999L15.2528 16L15.2421 16L15.2031 16.0002C15.1696 16.0002 15.1213 16.0001 15.06 15.9995C14.9374 15.9983 14.7625 15.9953 14.5494 15.9879C14.1244 15.9732 13.5423 15.9409 12.9191 15.8702C12.2994 15.7999 11.6191 15.6895 11.0048 15.5127C10.4135 15.3425 9.77938 15.0827 9.34835 14.6517C8.47194 13.7752 8.12002 12.573 8.29259 11.4348C7.38486 10.9745 6.35098 10.2201 5.252 9.13515C3.9732 7.8727 2.4878 6.30941 1.47712 4.88584C0.97602 4.18003 0.554167 3.45747 0.352218 2.78985C0.152841 2.13072 0.116666 1.32087 0.72017 0.718928C1.32668 0.112373 2.14023 0.170263 2.78881 0.379806C3.44898 0.593092 4.16474 1.02606 4.86504 1.53511ZM8.81678 10.0161C8.96493 9.77886 9.14212 9.55458 9.34835 9.34835C9.55154 9.14516 9.77225 8.97016 10.0056 8.82336C9.82501 8.50104 9.59082 8.14648 9.29576 7.7649L7.74254 9.31812C8.12993 9.60857 8.48978 9.83888 8.81678 10.0161ZM15.2573 15.9999C15.2574 15.9999 15.2575 15.9999 15.2499 15.25C15.9998 15.2576 15.9998 15.2575 15.9998 15.2574C15.9956 15.6656 15.6655 15.9958 15.2573 15.9999ZM8.05612 6.37966C8.14231 6.46476 8.22587 6.54904 8.30686 6.63248L6.59389 8.34545C6.49893 8.25608 6.40289 8.16352 6.30582 8.0677C5.03701 6.8151 3.63074 5.32815 2.70022 4.01749C2.23071 3.35618 1.91958 2.79063 1.78797 2.35555C1.65379 1.91196 1.75654 1.80381 1.78016 1.78026C1.79385 1.76629 1.89184 1.66636 2.32767 1.80716C2.76016 1.94689 3.32286 2.26852 3.98308 2.74843C5.29201 3.69989 6.7798 5.11966 8.05612 6.37966ZM14.3797 13.0882C14.4386 13.6071 14.4689 14.0997 14.4844 14.4844C14.0996 14.469 13.607 14.4386 13.0882 14.3798C12.5115 14.3143 11.9222 14.2158 11.4196 14.0712C10.894 13.9199 10.5638 13.7457 10.409 13.591C9.53033 12.7123 9.53033 11.2877 10.409 10.409C11.2877 9.53033 12.7123 9.53033 13.591 10.409C13.7457 10.5638 13.9199 10.894 14.0712 11.4196C14.2158 11.9223 14.3143 12.5115 14.3797 13.0882Z" fill="black"/>
</g>
<defs>
<clipPath id="clip0">
<rect width="16" height="16" fill="white"/>
</clipPath>
</defs>
</svg>

<svg xmlns="http://www.w3.org/2000/svg" width="16" height="16" viewBox="0 0 16 16"><path d="M0 0h16v16H0z"/><path fill-rule="evenodd" d="M4.865 1.535C6.277 2.562 7.839 4.057 9.11 5.312c1.09 1.076 1.849 2.09 2.315 2.982a3.745 3.745 0 013.227 1.054c.43.431.69 1.066.86 1.657.178.614.288 1.294.358 1.914a21.292 21.292 0 01.13 2.284v.054l-.75-.007.007.75h-.054a14.399 14.399 0 01-.654-.012 21.241 21.241 0 01-1.63-.118c-.62-.07-1.3-.18-1.914-.357-.591-.17-1.226-.43-1.657-.861a3.745 3.745 0 01-1.055-3.217c-.908-.46-1.942-1.215-3.041-2.3-1.279-1.262-2.764-2.826-3.775-4.25C.976 4.18.554 3.458.352 2.79.152 2.13.117 1.32.72.719 1.327.112 2.14.17 2.79.379c.66.214 1.376.647 2.076 1.156zm3.952 8.481a3.762 3.762 0 011.189-1.193 8.697 8.697 0 00-.71-1.058L7.743 9.318c.387.29.747.52 1.074.698zM15.257 16l-.007-.75.75.007a.75.75 0 01-.743.743zm-7.2-9.62l.25.252-1.713 1.713a16.79 16.79 0 01-.288-.277C5.037 6.815 3.63 5.328 2.7 4.018c-.47-.662-.78-1.227-.912-1.662-.134-.444-.031-.552-.008-.576.014-.014.112-.114.548.027.432.14.995.462 1.655.941C5.292 3.7 6.78 5.12 8.056 6.38zm6.323 6.708c.059.52.089 1.012.104 1.396a19.542 19.542 0 01-1.396-.104 10.528 10.528 0 01-1.668-.309c-.526-.151-.856-.325-1.011-.48a2.25 2.25 0 013.182-3.182c.155.155.329.485.48 1.01.145.503.243 1.092.309 1.67z"/></svg>
